travel/img/button call me.svg

<svg width="156" height="54" viewBox="0 0 156 54" fill="none" xmlns="http://www.w3.org/2000/svg">
<path fill-rule="evenodd" clip-rule="evenodd" d="M61 7.51758H19.1958C8.59426 7.51758 0 16.1118 0 26.7134C0 37.315 8.59427 45.9092 19.1958 45.9092H61V44.9092H19.1958C9.14656 44.9092 1 36.7627 1 26.7134C1 16.6641 9.14655 8.51758 19.1958 8.51758H61V7.51758ZM95 44.9092H136.804C146.853 44.9092 155 36.7627 155 26.7134C155 16.6641 146.853 8.51758 136.804 8.51758H95V7.51758H136.804C147.406 7.51758 156 16.1118 156 26.7134C156 37.315 147.406 45.9092 136.804 45.9092H95V44.9092Z" fill="white"/>
<path d="M77.9506 0.239258L76.859 2.22498L75.8025 4.2107C76.5596 5.60493 77.2287 6.81326 77.9771 8.18214L80.1516 4.2107L79.0335 2.22498L77.9506 0.239258Z" fill="white"/>
<path d="M88.9111 7.00762L88.8055 6.94847L88.6998 6.88087L88.5854 6.82173L88.4797 6.75413L88.3653 6.69498L88.2596 6.63583L88.154 6.57668L88.0395 6.51753L87.9251 6.45838L87.8194 6.40768L87.705 6.34853L87.5905 6.28938L87.4849 6.23023L87.3704 6.17953L87.256 6.12039L87.1415 6.06969L87.0271 6.01899L86.9126 5.96829L86.7982 5.90914L86.7366 5.88379L85.7241 8.00471L85.7681 8.02161L85.8738 8.06386L85.9706 8.11456L86.0763 8.16525L86.1731 8.2075L86.27 8.2582L86.3756 8.3089L86.4724 8.3596L86.5693 8.40185L86.6661 8.45255L86.7718 8.5117L86.8686 8.5624L86.9655 8.6131L87.0623 8.6638L87.1591 8.7145L87.256 8.77365L87.3528 8.82434L87.4497 8.87504L87.5465 8.93419L87.6434 8.99334L87.7314 9.04404L88.9991 7.05832L88.9111 7.00762Z" fill="white"/>
<path d="M84.1755 4.93709L84.0523 4.90329L83.929 4.86949L83.8057 4.82724L83.6825 4.79344L83.5592 4.76809L83.4272 4.73429L83.3039 4.70049L83.1807 4.66669L83.0574 4.64134L82.9254 4.60754L82.8021 4.57374L82.6789 4.54839L82.5468 4.52304L82.4236 4.49769L82.2915 4.46389L82.1683 4.43854L82.0362 4.42164L81.913 4.39629L81.8425 4.37939L81.4023 6.66931L81.4552 6.67776L81.5696 6.70311L81.6841 6.72001L81.7897 6.74536L81.9042 6.77071L82.0186 6.79606L82.133 6.82141L82.2387 6.84676L82.3531 6.86366L82.4676 6.89746L82.5732 6.92281L82.6877 6.94816L82.8021 6.98195L82.9078 7.0073L83.0134 7.03265L83.1279 7.06645L83.2335 7.10025L83.348 7.1256L83.4536 7.1594L83.568 7.1932L83.6121 7.2101L84.3428 4.98779L84.2988 4.97934L84.1755 4.93709Z" fill="white"/>
<path d="M74.1214 4.37124L73.9893 4.39659L73.8572 4.42194L73.734 4.43884L73.6019 4.46419L73.4787 4.49799L73.3466 4.52334L73.2233 4.54869L73.0913 4.57404L72.968 4.60784L72.8448 4.64164L72.7215 4.66699L72.5894 4.70079L72.4662 4.73459L72.3429 4.76839L72.2197 4.79374L72.0964 4.82754L71.9732 4.86979L71.8411 4.90358L71.7267 4.93738L71.6738 4.95428L72.4046 7.1766L72.4398 7.1597L72.5542 7.1259L72.6599 7.10055L72.7655 7.06675L72.88 7.03295L72.9944 7.0076L73.1001 6.98225L73.2145 6.94845L73.3202 6.9231L73.4346 6.89775L73.5403 6.86396L73.6547 6.84706L73.7692 6.82171L73.8836 6.79636L73.9893 6.77101L74.1037 6.74566L74.2182 6.72031L74.3327 6.70341L74.4471 6.67806L74.5528 6.66116L74.6144 6.65271L74.1742 4.36279L74.1214 4.37124Z" fill="white"/>
<path d="M69.2176 5.85821L69.1031 5.90891L68.9887 5.96806L68.8742 6.01876L68.7598 6.06946L68.6453 6.12015L68.5309 6.1793L68.4164 6.23L68.302 6.28915L68.1963 6.3483L68.0819 6.40745L67.9674 6.45815L67.8618 6.5173L67.7473 6.57645L67.6417 6.6356L67.5273 6.69475L67.4216 6.75389L67.3072 6.82149L67.2015 6.88064L67.0959 6.94824L66.999 6.99894L68.2756 8.98466L68.3548 8.93396L68.4516 8.87481L68.5397 8.82411L68.6365 8.77341L68.7334 8.71426L68.8302 8.66357L68.9359 8.61287L69.0327 8.56217L69.1295 8.51147L69.2264 8.45232L69.3232 8.40162L69.4201 8.35937L69.5257 8.30867L69.6226 8.25797L69.7194 8.20727L69.825 8.16502L69.9219 8.11432L70.0275 8.06362L70.1244 8.02138L70.23 7.97913L70.2828 7.95378L69.2704 5.84131L69.2176 5.85821Z" fill="white"/>
<path d="M77.9506 53.7544L76.859 51.7687L75.8025 49.783C76.5596 48.3887 77.2287 47.1804 77.9771 45.8115L80.1516 49.783L79.0335 51.7687L77.9506 53.7544Z" fill="white"/>
<path d="M88.9111 46.986L88.8055 47.0452L88.6998 47.1128L88.5854 47.1719L88.4797 47.2395L88.3653 47.2987L88.2596 47.3578L88.154 47.417L88.0395 47.4761L87.9251 47.5353L87.8194 47.586L87.705 47.6451L87.5905 47.7043L87.4849 47.7634L87.3704 47.8141L87.256 47.8733L87.1415 47.924L87.0271 47.9747L86.9126 48.0254L86.7982 48.0845L86.7366 48.1099L85.7241 45.9889L85.7681 45.972L85.8738 45.9298L85.9706 45.8791L86.0763 45.8284L86.1731 45.7861L86.27 45.7354L86.3756 45.6848L86.4724 45.6341L86.5693 45.5918L86.6661 45.5411L86.7718 45.482L86.8686 45.4313L86.9655 45.3806L87.0623 45.3299L87.1591 45.2792L87.256 45.22L87.3528 45.1693L87.4497 45.1186L87.5465 45.0595L87.6434 45.0003L87.7314 44.9496L88.9991 46.9353L88.9111 46.986Z" fill="white"/>
<path d="M84.1755 49.0566L84.0523 49.0904L83.929 49.1242L83.8057 49.1664L83.6825 49.2002L83.5592 49.2256L83.4272 49.2594L83.3039 49.2932L83.1807 49.327L83.0574 49.3523L82.9254 49.3861L82.8021 49.4199L82.6789 49.4453L82.5468 49.4706L82.4236 49.496L82.2915 49.5298L82.1683 49.5551L82.0362 49.572L81.913 49.5974L81.8425 49.6143L81.4023 47.3243L81.4552 47.3159L81.5696 47.2905L81.6841 47.2736L81.7897 47.2483L81.9042 47.2229L82.0186 47.1976L82.133 47.1722L82.2387 47.1469L82.3531 47.13L82.4676 47.0962L82.5732 47.0708L82.6877 47.0455L82.8021 47.0117L82.9078 46.9863L83.0134 46.961L83.1279 46.9272L83.2335 46.8934L83.348 46.868L83.4536 46.8342L83.568 46.8005L83.6121 46.7836L84.3428 49.0059L84.2988 49.0143L84.1755 49.0566Z" fill="white"/>
<path d="M74.1214 49.6224L73.9893 49.5971L73.8572 49.5717L73.734 49.5548L73.6019 49.5295L73.4787 49.4957L73.3466 49.4703L73.2233 49.445L73.0913 49.4196L72.968 49.3858L72.8448 49.352L72.7215 49.3267L72.5894 49.2929L72.4662 49.2591L72.3429 49.2253L72.2197 49.1999L72.0964 49.1661L71.9732 49.1239L71.8411 49.0901L71.7267 49.0563L71.6738 49.0394L72.4046 46.8171L72.4398 46.834L72.5542 46.8678L72.6599 46.8931L72.7655 46.9269L72.88 46.9607L72.9944 46.986L73.1001 47.0114L73.2145 47.0452L73.3202 47.0705L73.4346 47.0959L73.5403 47.1297L73.6547 47.1466L73.7692 47.1719L73.8836 47.1973L73.9893 47.2226L74.1037 47.248L74.2182 47.2733L74.3327 47.2902L74.4471 47.3156L74.5528 47.3325L74.6144 47.3409L74.1742 49.6309L74.1214 49.6224Z" fill="white"/>
<path d="M69.2176 48.1354L69.1031 48.0847L68.9887 48.0256L68.8742 47.9749L68.7598 47.9242L68.6453 47.8735L68.5309 47.8143L68.4164 47.7636L68.302 47.7045L68.1963 47.6454L68.0819 47.5862L67.9674 47.5355L67.8618 47.4764L67.7473 47.4172L67.6417 47.3581L67.5273 47.2989L67.4216 47.2398L67.3072 47.1722L67.2015 47.113L67.0959 47.0454L66.999 46.9947L68.2756 45.009L68.3548 45.0597L68.4516 45.1188L68.5397 45.1695L68.6365 45.2202L68.7334 45.2794L68.8302 45.3301L68.9359 45.3808L69.0327 45.4315L69.1295 45.4822L69.2264 45.5413L69.3232 45.592L69.4201 45.6343L69.5257 45.685L69.6226 45.7357L69.7194 45.7864L69.825 45.8286L69.9219 45.8793L70.0275 45.93L70.1244 45.9723L70.23 46.0145L70.2828 46.0399L69.2704 48.1523L69.2176 48.1354Z" fill="white"/>
</svg>

<svg width="156" height="54" fill="none" xmlns="http://www.w3.org/2000/svg"><path fill-rule="evenodd" clip-rule="evenodd" d="M61 7.518H19.196C8.594 7.518 0 16.112 0 26.713 0 37.315 8.594 45.91 19.196 45.91H61v-1H19.196C9.146 44.91 1 36.763 1 26.713 1 16.664 9.147 8.518 19.196 8.518H61v-1zm34 37.391h41.804c10.049 0 18.196-8.146 18.196-18.196 0-10.049-8.147-18.195-18.196-18.195H95v-1h41.804c10.602 0 19.196 8.594 19.196 19.195 0 10.602-8.594 19.196-19.196 19.196H95v-1z" fill="#fff"/><path d="M77.95.24l-1.09 1.984-1.056 1.986c.757 1.394 1.426 2.602 2.174 3.971l2.175-3.971-1.118-1.986L77.95.239zm10.961 6.768l-.106-.06-.105-.067-.115-.06-.105-.067-.115-.059-.105-.06-.106-.058-.114-.06-.115-.059-.106-.05-.114-.06-.114-.059-.106-.059-.115-.05-.114-.06-.115-.05-.114-.051-.114-.05-.115-.06-.061-.025-1.013 2.12.044.018.106.042.097.05.105.051.097.043.097.05.106.05.096.052.097.042.097.05.106.06.097.05.097.051.096.05.097.051.097.06.097.05.097.051.096.06.097.058.088.051L89 7.058l-.088-.05zm-4.736-2.071l-.123-.034-.123-.034-.123-.042-.123-.034-.124-.025-.132-.034-.123-.034-.123-.033-.124-.026-.132-.033-.123-.034-.123-.026-.132-.025-.123-.025-.133-.034-.123-.025-.132-.017-.123-.026-.07-.017-.44 2.29.052.009.115.025.114.017.106.025.114.026.115.025.114.025.106.026.114.017.115.033.105.026.115.025.114.034.106.025.105.026.115.033.106.034.114.026.106.033.114.034.044.017.73-2.222-.043-.009-.124-.042zm-10.054-.566l-.132.026-.132.025-.123.017-.132.025-.123.034-.132.025-.124.026-.132.025-.123.034-.123.034-.123.025-.133.034-.123.034-.123.033-.123.026-.124.034-.123.042-.132.034-.114.033-.053.017.73 2.223.036-.017.114-.034.106-.025.106-.034.114-.034.114-.025.106-.026.115-.034.105-.025.115-.025.105-.034.115-.017.114-.025.115-.026.105-.025.115-.025.114-.026.115-.017.114-.025.106-.017.061-.008-.44-2.29-.053.008zm-4.903 1.487l-.115.05-.114.06-.115.05-.114.051-.115.051-.114.06-.115.05-.114.06-.106.058-.114.06-.115.05-.105.06-.115.058-.105.06-.115.059-.105.059-.115.067-.106.06-.105.067-.097.05 1.277 1.987.079-.051.097-.06.088-.05.096-.05.097-.06.097-.05.106-.051.097-.05.096-.052.097-.059.097-.05.097-.043.106-.05.097-.051.096-.05.106-.043.097-.05.106-.051.096-.043.106-.042.053-.025L69.27 5.84l-.052.017zm8.732 47.896l-1.09-1.984-1.056-1.986c.757-1.394 1.426-2.603 2.174-3.971l2.175 3.971-1.118 1.986-1.083 1.985zm10.961-6.768l-.106.06-.105.067-.115.059-.105.068-.115.059-.105.059-.106.059-.114.06-.115.058-.106.051-.114.06-.114.058-.106.06-.115.05-.114.06-.115.05-.114.05-.114.051-.115.06-.061.025-1.013-2.121.044-.017.106-.042.097-.05.105-.052.097-.042.097-.05.106-.051.096-.05.097-.043.097-.05.106-.06.097-.05.097-.051.096-.051.097-.05.097-.06.097-.05.097-.051.096-.06.097-.059.088-.05L89 46.935l-.088.051zm-4.736 2.071l-.123.033-.123.034-.123.042-.123.034-.124.026-.132.033-.123.034-.123.034-.124.025-.132.034-.123.034-.123.025-.132.026-.123.025-.133.034-.123.025-.132.017-.123.025-.07.017-.44-2.29.052-.008.115-.026.114-.016.106-.026.114-.025.115-.025.114-.026.106-.025.114-.017.115-.034.105-.025.115-.026.114-.033.106-.026.105-.025.115-.034.106-.034.114-.025.106-.034.114-.034.044-.016.73 2.222-.043.008-.124.043zm-10.054.565l-.132-.025-.132-.025-.123-.017-.132-.026-.123-.033-.132-.026-.124-.025-.132-.025-.123-.034-.123-.034-.123-.025-.133-.034-.123-.034-.123-.034-.123-.025-.124-.034-.123-.042-.132-.034-.114-.034-.053-.017.73-2.222.036.017.114.034.106.025.106.034.114.034.114.025.106.025.115.034.105.026.115.025.105.034.115.017.114.025.115.025.105.026.115.025.114.025.115.017.114.026.106.017.061.008-.44 2.29-.053-.009zm-4.903-1.487l-.115-.05-.114-.06-.115-.05-.114-.05-.115-.051-.114-.06-.115-.05-.114-.06-.106-.059-.114-.059-.115-.05-.105-.06-.115-.059-.105-.059-.115-.06-.105-.058-.115-.068-.106-.059-.105-.068-.097-.05 1.277-1.986.079.05.097.06.088.05.096.051.097.06.097.05.106.05.097.051.096.051.097.06.097.05.097.042.106.051.097.05.096.051.106.043.097.05.106.051.096.042.106.042.053.026-1.013 2.112-.052-.017z" fill="#fff"/></svg>
